src/resources/assets/folder.svg

<svg xmlns="http://www.w3.org/2000/svg" width="16" height="16"><path d="M 2 5 L 2 11 C 2 12.105469 2.894531 13 4 13 L 12 13 C 13.105469 13 14 12.105469 14 11 L 14 6 C 14 4.894531 13.105469 4 12 4 L 7.175781 4 L 6.0625 3.109375 C 5.972656 3.039062 5.863281 3 5.75 3 L 4 3 C 2.894531 3 2 3.894531 2 5 Z M 3 5 C 3 4.449219 3.449219 4 4 4 L 5.574219 4 L 6.441406 4.695312 L 5.558594 5.5 L 3 5.5 Z M 7.59375 5 L 12 5 C 12.550781 5 13 5.449219 13 6 L 13 11 C 13 11.550781 12.550781 12 12 12 L 4 12 C 3.449219 12 3 11.550781 3 11 L 3 6.5 L 5.75 6.5 C 5.875 6.5 5.996094 6.453125 6.085938 6.371094 Z M 7.59375 5" fill="#ddd"/></svg>

<svg xmlns="http://www.w3.org/2000/svg" width="16" height="16"><path d="M2 5v6c0 1.105.895 2 2 2h8c1.105 0 2-.895 2-2V6c0-1.105-.895-2-2-2H7.176l-1.114-.89A.507.507 0 005.75 3H4c-1.105 0-2 .895-2 2zm1 0c0-.55.45-1 1-1h1.574l.867.695-.882.805H3zm4.594 0H12c.55 0 1 .45 1 1v5c0 .55-.45 1-1 1H4c-.55 0-1-.45-1-1V6.5h2.75a.5.5 0 00.336-.129zm0 0" fill="#ddd"/></svg>
